assets/landing-page/Asset/hdfcbank.svg

<svg width="56" height="10" viewBox="0 0 56 10" fill="none" xmlns="http://www.w3.org/2000/svg">
<path d="M55.9137 0H0.00012207V9.66408H55.9137V0Z" fill="#1B4683"/>
<path d="M55.9149 0H9.33008V9.66408H55.9149V0Z" fill="#1B4683"/>
<path d="M12.2942 7.11804V2.54248H13.737V4.08135H15.1007V2.54248H16.5633V7.11804H15.1007V5.33295H13.737V7.11804H12.2942Z" fill="white"/>
<path d="M18.8563 3.6705H19.2318C19.5085 3.6705 19.7061 3.69102 19.8247 3.75258C19.9235 3.79361 20.0026 3.85517 20.0619 3.95776C20.1212 4.06035 20.1805 4.16294 20.2003 4.32709C20.2398 4.47071 20.2595 4.63486 20.2595 4.79901C20.2595 5.06574 20.22 5.29144 20.141 5.47611C20.0619 5.66077 19.9631 5.78388 19.8247 5.86595C19.6864 5.94802 19.4887 5.98906 19.212 5.98906H18.8563V3.69102V3.6705ZM19.4097 7.11756C19.7457 7.11756 20.0421 7.09705 20.2595 7.01497C20.4967 6.95342 20.6746 6.87134 20.8327 6.76875C20.9711 6.66616 21.1094 6.52253 21.228 6.35839C21.3466 6.17372 21.4652 5.96854 21.5442 5.70181C21.6233 5.43507 21.6628 5.1273 21.6628 4.77849C21.6628 4.26553 21.564 3.85517 21.3861 3.48584C21.1885 3.13703 20.9315 2.89081 20.6153 2.74719C20.2793 2.60356 19.9038 2.52148 19.4492 2.52148H17.4332V7.09704H19.4097V7.11756Z" fill="white"/>
<path d="M22.3353 7.11804V2.54248H25.7743V3.67098H23.7584V4.40964H25.3593V5.51762H23.7584V7.13856H22.3353V7.11804Z" fill="white"/>
<path d="M30.6372 4.28609H29.2735C29.2537 4.06039 29.1746 3.87573 29.0363 3.75262C28.8979 3.62951 28.7398 3.56796 28.5224 3.56796C28.2655 3.56796 28.0481 3.67055 27.8899 3.87573C27.7318 4.08091 27.6528 4.4092 27.6528 4.88112C27.6528 5.20941 27.6923 5.43511 27.7516 5.59926C27.8109 5.7634 27.9097 5.88651 28.0481 5.96859C28.1666 6.05066 28.3248 6.0917 28.5026 6.0917C28.7201 6.0917 28.8979 6.03014 29.0363 5.90703C29.1746 5.78392 29.2537 5.59926 29.2735 5.35304H30.6767C30.6372 5.64029 30.5977 5.86599 30.5186 6.07118C30.4396 6.25584 30.3012 6.46102 30.1233 6.64569C29.9455 6.85087 29.7083 6.9945 29.4513 7.09709C29.1944 7.19968 28.8979 7.26123 28.5619 7.26123C28.2259 7.26123 27.9097 7.2202 27.633 7.11761C27.3563 7.01501 27.0994 6.87139 26.9215 6.68672C26.7238 6.50206 26.5657 6.27636 26.4669 6.03014C26.3088 5.68133 26.2297 5.312 26.2297 4.88112C26.2297 4.53231 26.289 4.20402 26.3878 3.89625C26.5064 3.58847 26.6448 3.34225 26.8424 3.11655C27.0401 2.91137 27.2575 2.74723 27.4947 2.64464C27.7911 2.50101 28.1271 2.43945 28.5026 2.43945C28.8189 2.43945 29.1153 2.48049 29.4118 2.58308C29.6885 2.68567 29.9257 2.8293 30.1036 3.01396C30.2814 3.19863 30.4198 3.42433 30.5186 3.67055C30.5977 3.83469 30.6372 4.06039 30.657 4.30661L30.6372 4.28609Z" fill="white"/>
<path d="M35.2803 3.56862C35.478 3.56862 35.6163 3.56862 35.6756 3.58914C35.7547 3.60966 35.8337 3.67122 35.8733 3.73277C35.9326 3.79432 35.9523 3.8764 35.9523 3.97899C35.9523 4.1021 35.9128 4.18417 35.814 4.26624C35.7152 4.34832 35.5768 4.36883 35.3396 4.36883H34.7862V3.56862H35.2408H35.2803ZM35.6361 7.11827C35.9721 7.11827 36.229 7.11827 36.3674 7.07724C36.5057 7.0362 36.6441 6.99516 36.8022 6.91309C36.9406 6.83102 37.0591 6.76946 37.1184 6.68739C37.237 6.5848 37.3161 6.44117 37.3754 6.29755C37.4347 6.1334 37.4742 5.94874 37.4742 5.76407C37.4742 5.49734 37.4149 5.25112 37.2765 5.06645C37.1382 4.88179 36.9603 4.75868 36.7429 4.69712C37.1184 4.45091 37.3161 4.12262 37.3161 3.73277C37.3161 3.34292 37.1382 3.01463 36.822 2.80945C36.565 2.6453 36.1697 2.56323 35.6163 2.56323H33.4225V7.13879H35.6559L35.6361 7.11827ZM35.3989 5.21008C35.6954 5.21008 35.8733 5.25112 35.9721 5.31267C36.0512 5.39475 36.1104 5.49734 36.1104 5.62045C36.1104 5.74355 36.0709 5.86666 35.9721 5.94874C35.8733 6.03081 35.6954 6.07184 35.4187 6.07184H34.8258V5.21008H35.4187H35.3989Z" fill="white"/>
<path d="M40.658 5.57917H39.7291L40.1837 3.9172L40.658 5.57917ZM39.2943 7.11804L39.4524 6.52301H40.8952L41.073 7.11804H42.5159L40.9347 2.54248H39.4524L37.8712 7.11804H39.2943Z" fill="white"/>
<path d="M43.1289 7.11804V2.54248H44.4729L45.9948 4.98414V2.54248H47.3783V7.11804H45.9948L44.5124 4.73793V7.11804H43.1289Z" fill="white"/>
<path d="M48.3634 7.11804V2.54248H49.7666V4.06083L51.0711 2.54248H52.7709L51.1502 4.26601L52.929 7.11804H51.1897L50.1224 5.29192L49.7271 5.68176V7.11804H48.3239H48.3634Z" fill="white"/>
<path d="M9.30905 0H0V9.66408H9.30905V0Z" fill="#DC2227"/>
<path d="M7.69012 1.68213H1.64221V7.9607H7.69012V1.68213Z" fill="white"/>
<path d="M5.14071 0H4.21179V9.66408H5.14071V0Z" fill="white"/>
<path d="M9.30905 4.34937H0V5.31372H9.30905V4.34937Z" fill="white"/>
<path d="M6.04668 3.3855H3.25989V6.27857H6.04668V3.3855Z" fill="#1B4683"/>
</svg>

<svg xmlns="http://www.w3.org/2000/svg" width="56" height="10" fill="none" viewBox="0 0 56 10"><path fill="#1b4683" d="M55.914 0H0v9.664h55.914z"/><path fill="#1b4683" d="M55.915 0H9.33v9.664h46.585z"/><path fill="#fff" d="M12.294 7.118V2.542h1.443v1.54h1.364v-1.54h1.462v4.576h-1.462V5.333h-1.364v1.785zm6.562-3.448h.376c.277 0 .474.021.593.083a.47.47 0 0 1 .237.205.9.9 0 0 1 .138.37c.04.143.06.307.06.471q0 .4-.119.677a.78.78 0 0 1-.316.39c-.139.082-.336.123-.613.123h-.356zm.554 3.448c.336 0 .632-.021.85-.103.237-.062.415-.144.573-.246.138-.103.276-.246.395-.41a2.5 2.5 0 0 0 .316-.657q.12-.4.119-.924c0-.512-.099-.923-.277-1.292q-.296-.523-.77-.739a2.9 2.9 0 0 0-1.167-.226h-2.016v4.576h1.977zm2.925-.001V2.542h3.44v1.129h-2.017v.739h1.601v1.108h-1.6v1.62h-1.424zm8.302-2.832h-1.364c-.02-.226-.098-.41-.237-.533a.72.72 0 0 0-.514-.185.77.77 0 0 0-.632.308c-.158.205-.237.533-.237 1.005 0 .328.04.554.099.718q.089.247.296.37a.8.8 0 0 0 .455.123.77.77 0 0 0 .533-.185q.209-.185.237-.554h1.404c-.04.287-.08.513-.158.718-.08.185-.218.39-.396.575a1.7 1.7 0 0 1-.672.451 2.4 2.4 0 0 1-.89.164c-.335 0-.651-.04-.928-.143s-.534-.247-.711-.431a1.85 1.85 0 0 1-.455-.657 2.7 2.7 0 0 1-.237-1.149 3.2 3.2 0 0 1 .158-.985c.118-.308.257-.554.454-.78a2.1 2.1 0 0 1 .653-.471c.296-.144.632-.206 1.008-.206.316 0 .612.041.909.144.277.103.514.246.692.431s.316.41.415.657c.079.164.118.39.138.636zm4.643-.717c.198 0 .336 0 .396.02.079.02.158.082.197.144.06.061.08.143.08.246 0 .123-.04.205-.139.287s-.237.103-.474.103h-.554v-.8zm.356 3.55c.336 0 .593 0 .731-.042a2.2 2.2 0 0 0 .435-.164c.139-.082.257-.144.316-.226.119-.102.198-.246.257-.39.06-.164.1-.348.1-.533 0-.267-.06-.513-.199-.698a1 1 0 0 0-.533-.369c.375-.246.573-.574.573-.964s-.178-.718-.494-.924c-.257-.164-.652-.246-1.206-.246h-2.193V7.14h2.233zM35.4 5.21c.296 0 .474.041.573.103a.437.437 0 0 1 0 .636c-.099.082-.277.123-.553.123h-.593V5.21h.593zm5.258.37h-.929l.455-1.663zm-1.364 1.538.158-.595h1.443l.178.595h1.443l-1.581-4.576h-1.483l-1.58 4.576zm3.835 0V2.542h1.344l1.522 2.442V2.542h1.383v4.576h-1.383l-1.483-2.38v2.38zm5.234 0V2.542h1.404v1.519l1.304-1.519h1.7l-1.62 1.724 1.778 2.852h-1.74l-1.067-1.826-.395.39v1.436h-1.403z"/><path fill="#dc2227" d="M9.309 0H0v9.664h9.309z"/><path fill="#fff" d="M7.69 1.682H1.642v6.279H7.69z"/><path fill="#fff" d="M5.14 0h-.928v9.664h.929z"/><path fill="#fff" d="M9.309 4.35H0v.964h9.309z"/><path fill="#1b4683" d="M6.047 3.386H3.26v2.893h2.787z"/></svg>
